!!!SOCIAL_FUNCTION:	game songs
!!!PDT:	1943
!!!OTL: No_62_Slahal_Game_Song_(d).krn
!!!REG: British Columbia
**kern	**kern
*staff2	*staff1
=1-	=1-
=	=
*clefF4	*clefF4
*k[f#c#g#]	*k[f#c#g#]
*M2/4	*M2/4
16GG#/LL	8.A\L
16GG#/	.
16GG#/	.
16GG#/JJ	16B\Jk
16GG#/LL	16c#\LL
16GG#/	[16B\
16GG#/	16B\]
16GG#/JJ	16A\JJ
=2	=2
16GG#/LL	16B\LL
16GG#/	16A\
16GG#/	16A\
16GG#/JJ	16F#\JJ
4r	16F#\LL
.	16E\
.	16D\JJ
.	16r
=3	=3
2r	8E\L
.	16F#\Jk
.	16r
.	8D\L
.	16D\Jk
.	16r
=4	=4
2r	8D\L
.	8D\J
.	8D\L
.	16D\Jk
.	16r
=5	=5
2r	8D\L
.	16D\Jk
.	16r
.	8AA/L
.	16AA/Jk
.	16r
=6||	=6||
*M3/4	*M3/4
2.r	8D\L
.	16D\L
.	16F#\JJ
.	8.A\L
.	16F#\Jk
.	16F#\LL
.	16E\
.	16D\JJ
.	16r
=7||	=7||
*M2/4	*M2/4
2r	8E\L
.	16F#\Jk
.	16r
.	8D\L
.	16D\Jk
.	16r
=8	=8
2r	8D\L
.	8D\J
.	8D\L
.	16D\Jk
.	16r
=9	=9
2r	8D\L
.	16D\Jk
.	16r
.	8AA/L
.	16AA/Jk
.	16r
==:|!	==:|!
*-	*-
